standards.svg

<svg height="52pt" viewBox="0 0 64 52" width="64pt" xmlns="http://www.w3.org/2000/svg"><path d="m63.65 0h.35v.29c-3.94 4.64-9.02 8.13-12.99 12.73.43-2.24.77-4.5.74-6.78-2.49-.22-2.04 4.32-2.96 6.18.41-2.14.77-4.29 1.14-6.44-8.58 1.32-17.28.91-25.9 1.81-4.91.5-9.85.56-14.78.5.65 2.35 1.3 4.71 2.03 7.04-.97-2.49-1.71-5.07-2.81-7.5-.15.3-.45.92-.61 1.23.18 3.15 1.07 6.2 1.98 9.21-.71-1.79-1.47-3.55-2.23-5.32-2.89 2.64-6.01 5.23-7.61 8.91v-2.26c2.24-2.66 4.81-5 7.42-7.28-.2-1.54-.34-3.08-.44-4.63 3.77-.04 7.55.47 11.31.05 11.15-1.23 22.44-.93 33.54-2.71.85 1.81.14 3.87.14 5.77 3.97-3.53 7.81-7.18 11.68-10.8z" fill="#4e4543" opacity=".6"/><g fill="#accfc2"><path d="m48.79 12.42c.92-1.86.47-6.4 2.96-6.18.03 2.28-.31 4.54-.74 6.78-.6 2.31-1.28 4.6-1.98 6.88-.23.57-.7 1.72-.93 2.3-1.98 2.65-4.68 4.61-7.73 5.85-5.71 1.59-11.68 1.88-17.53.98-4.03-.49-7.56-2.74-10.28-5.65-.91-1.53-1.76-3.07-2.55-4.66l-.17-.45c-.91-3.01-1.8-6.06-1.98-9.21.16-.31.46-.93.61-1.23 1.1 2.43 1.84 5.01 2.81 7.5 1.57 3.84 3.57 8.26 7.78 9.77 7.13 2.8 15.46 2.69 22.39-.65 4.2-2.54 6.25-7.45 7.34-12.03z"/><path d="m18.2 47.54.76-.07.39.63c-.16.75-.5 2.24-.67 2.99l-.62.25c-.36-.57-1.08-1.71-1.45-2.28.4-.38 1.2-1.14 1.59-1.52z"/><path d="m44.12 49.87c-.26-1.32-.45-2.65-.71-3.96 1.12 1.22 2.25 2.43 3.35 3.67-.45.14-1.34.43-1.79.58z"/></g><path d="m24.03 7.79c8.62-.9 17.32-.49 25.9-1.81-.37 2.15-.73 4.3-1.14 6.44-1.09 4.58-3.14 9.49-7.34 12.03-6.93 3.34-15.26 3.45-22.39.65-4.21-1.51-6.21-5.93-7.78-9.77-.73-2.33-1.38-4.69-2.03-7.04 4.93.06 9.87 0 14.78-.5m17.14.4c-1.54 2.97 3.34.17 0 0m-14.78 2.12c-1.31.67-1.31 1.34 0 2.01 1.32-.67 1.32-1.34 0-2.01m6.77-.25c-.48 1.63.08 2.18 1.71 1.65.49-1.63-.08-2.18-1.71-1.65m-19.8 1.3c-.52 1.64.02 2.22 1.63 1.74.52-1.65-.03-2.22-1.63-1.74m16.73 1.68c-1.55 3.02 3.32.17 0 0m.64 3.64c-1.85-.44-3.59-1.27-5.38-1.9 1.52 1.77 3.69 3.99 6.26 2.98 2.05-.41 3.12-2.26 4-3.96-1.62.96-3.16 2.08-4.88 2.88m13.62-2.47c.51.52.51.52 0 0m-25.91 4.74c-.55 1.65-.01 2.21 1.6 1.7.54-1.65.01-2.21-1.6-1.7m18 .25c.49.54.49.54 0 0m.72 2.4c-1.67 2.91 3.32.3 0 0m-13.14 1.07c-1.35 3.1 3.31-.05 0 0z" fill="#ffbdb8"/><path d="m41.17 8.19c3.34.17-1.54 2.97 0 0z" fill="#b98c88"/><path d="m26.39 10.31c1.32.67 1.32 1.34 0 2.01-1.31-.67-1.31-1.34 0-2.01z" fill="#795a58"/><path d="m33.16 10.06c1.63-.53 2.2.02 1.71 1.65-1.63.53-2.19-.02-1.71-1.65z" fill="#987370"/><path d="m13.36 11.36c1.6-.48 2.15.09 1.63 1.74-1.61.48-2.15-.1-1.63-1.74z" fill="#b88a87"/><path d="m30.09 13.04c3.32.17-1.55 3.02 0 0z" fill="#503b3a"/><path d="m30.73 16.68c1.72-.8 3.26-1.92 4.88-2.88-.88 1.7-1.95 3.55-4 3.96-2.57 1.01-4.74-1.21-6.26-2.98 1.79.63 3.53 1.46 5.38 1.9z" fill="#d39f9b"/><path d="m44.35 14.21c.51.52.51.52 0 0z" fill="#9f7976"/><path d="m10.01 18.72c.79 1.59 1.64 3.13 2.55 4.66-3.65-2.15-8.08-1.19-12.08-1.83 3.42-.55 6.9-.57 10.36-.54-.2-.57-.62-1.72-.83-2.29z" fill="#2e312f" opacity=".61"/><path d="m18.44 18.95c1.61-.51 2.14.05 1.6 1.7-1.61.51-2.15-.05-1.6-1.7z" fill="#c1928e"/><path d="m36.44 19.2c.49.54.49.54 0 0z" fill="#a67c79"/><path d="m48.1 22.2c.23-.58.7-1.73.93-2.3-.23.57-.7 1.72-.93 2.3z" fill="#343e3b" opacity=".61"/><path d="m37.16 21.6c3.32.3-1.67 2.91 0 0z" fill="#9e7874"/><path d="m24.02 22.67c3.31-.05-1.35 3.1 0 0z" fill="#755755"/><path d="m22.84 29.03c5.85.9 11.82.61 17.53-.98-.88.44-1.74.89-2.61 1.34 1.58 5.01 3.56 9.93 4.42 15.14l-.26.55c-1.85-5.08-3.57-10.2-5.16-15.36-4.37.3-8.76.34-13.15.35-1.74 2.81-3.85 5.45-5.02 8.56-.57 2.92.22 5.91.37 8.84l-.76.07c-.27-2.99-1.2-6.02-.66-9.03 1.21-3.43 3.51-6.34 5.3-9.48z" fill="#232625" opacity=".47"/><path d="m41.92 45.08.26-.55c.3.34.92 1.03 1.23 1.38.26 1.31.45 2.64.71 3.96-2.26-.38-2.42-2.97-2.2-4.79z" fill="#3f4a46" opacity=".67"/><path d="m19.35 48.1c1.37.83 1.05 2.95-.67 2.99.17-.75.51-2.24.67-2.99z" fill="#2c3330" opacity=".55"/><path d="m14.95 52c-.29-1.27.8-2.22 1.66-2.94.37.57 1.09 1.71 1.45 2.28l-.54.66z" fill="#62746d" opacity=".85"/></svg>

<?xml version="1.0" encoding="UTF-8" ?>
<!DOCTYPE svg PUBLIC "-//W3C//DTD SVG 1.1//EN" "http://www.w3.org/Graphics/SVG/1.1/DTD/svg11.dtd">
<svg width="64pt" height="52pt" viewBox="0 0 64 52" version="1.1" xmlns="http://www.w3.org/2000/svg">
<g id="#4e45439a">
<path fill="#4e4543" opacity="0.60" d=" M 63.65 0.00 L 64.00 0.00 L 64.00 0.29 C 60.06 4.93 54.98 8.42 51.01 13.02 C 51.44 10.78 51.78 8.52 51.75 6.24 C 49.26 6.02 49.71 10.56 48.79 12.42 C 49.20 10.28 49.56 8.13 49.93 5.98 C 41.35 7.30 32.65 6.89 24.03 7.79 C 19.12 8.29 14.18 8.35 9.25 8.29 C 9.90 10.64 10.55 13.00 11.28 15.33 C 10.31 12.84 9.57 10.26 8.47 7.83 C 8.32 8.13 8.02 8.75 7.86 9.06 C 8.04 12.21 8.93 15.26 9.84 18.27 C 9.13 16.48 8.37 14.72 7.61 12.95 C 4.72 15.59 1.60 18.18 0.00 21.86 L 0.00 19.60 C 2.24 16.94 4.81 14.60 7.42 12.32 C 7.22 10.78 7.08 9.24 6.98 7.69 C 10.75 7.65 14.53 8.16 18.29 7.74 C 29.44 6.51 40.73 6.81 51.83 5.03 C 52.68 6.84 51.97 8.90 51.97 10.80 C 55.94 7.27 59.78 3.62 63.65 0.00 Z" />
</g>
<g id="#accfc2ff">
<path fill="#accfc2" opacity="1.00" d=" M 48.79 12.42 C 49.71 10.56 49.26 6.02 51.75 6.24 C 51.78 8.52 51.44 10.78 51.01 13.02 C 50.41 15.33 49.73 17.62 49.03 19.90 C 48.80 20.47 48.33 21.62 48.10 22.20 C 46.12 24.85 43.42 26.81 40.37 28.05 C 34.66 29.64 28.69 29.93 22.84 29.03 C 18.81 28.54 15.28 26.29 12.56 23.38 C 11.65 21.85 10.80 20.31 10.01 18.72 L 9.84 18.27 C 8.93 15.26 8.04 12.21 7.86 9.06 C 8.02 8.75 8.32 8.13 8.47 7.83 C 9.57 10.26 10.31 12.84 11.28 15.33 C 12.85 19.17 14.85 23.59 19.06 25.10 C 26.19 27.90 34.52 27.79 41.45 24.45 C 45.65 21.91 47.70 17.00 48.79 12.42 Z" />
<path fill="#accfc2" opacity="1.00" d=" M 18.20 47.54 L 18.96 47.47 L 19.35 48.10 C 19.19 48.85 18.85 50.34 18.68 51.09 L 18.06 51.34 C 17.70 50.77 16.98 49.63 16.61 49.06 C 17.01 48.68 17.81 47.92 18.20 47.54 Z" />
<path fill="#accfc2" opacity="1.00" d=" M 44.12 49.87 C 43.86 48.55 43.67 47.22 43.41 45.91 C 44.53 47.13 45.66 48.34 46.76 49.58 C 46.31 49.72 45.42 50.01 44.97 50.16 L 44.12 49.87 Z" />
</g>
<g id="#ffbdb8ff">
<path fill="#ffbdb8" opacity="1.00" d=" M 24.03 7.79 C 32.65 6.89 41.35 7.30 49.93 5.98 C 49.56 8.13 49.20 10.28 48.79 12.42 C 47.70 17.00 45.65 21.91 41.45 24.45 C 34.52 27.79 26.19 27.90 19.06 25.10 C 14.85 23.59 12.85 19.17 11.28 15.33 C 10.55 13.00 9.90 10.64 9.25 8.29 C 14.18 8.35 19.12 8.29 24.03 7.79 M 41.17 8.19 C 39.63 11.16 44.51 8.36 41.17 8.19 M 26.39 10.31 C 25.08 10.98 25.08 11.65 26.39 12.32 C 27.71 11.65 27.71 10.98 26.39 10.31 M 33.16 10.06 C 32.68 11.69 33.24 12.24 34.87 11.71 C 35.36 10.08 34.79 9.53 33.16 10.06 M 13.36 11.36 C 12.84 13.00 13.38 13.58 14.99 13.10 C 15.51 11.45 14.96 10.88 13.36 11.36 M 30.09 13.04 C 28.54 16.06 33.41 13.21 30.09 13.04 M 30.73 16.68 C 28.88 16.24 27.14 15.41 25.35 14.78 C 26.87 16.55 29.04 18.77 31.61 17.76 C 33.66 17.35 34.73 15.50 35.61 13.80 C 33.99 14.76 32.45 15.88 30.73 16.68 M 44.35 14.21 C 44.86 14.73 44.86 14.73 44.35 14.21 M 18.44 18.95 C 17.89 20.60 18.43 21.16 20.04 20.65 C 20.58 19.00 20.05 18.44 18.44 18.95 M 36.44 19.20 C 36.93 19.74 36.93 19.74 36.44 19.20 M 37.16 21.60 C 35.49 24.51 40.48 21.90 37.16 21.60 M 24.02 22.67 C 22.67 25.77 27.33 22.62 24.02 22.67 Z" />
</g>
<g id="#b98c88ff">
<path fill="#b98c88" opacity="1.00" d=" M 41.17 8.19 C 44.51 8.36 39.63 11.16 41.17 8.19 Z" />
</g>
<g id="#795a58ff">
<path fill="#795a58" opacity="1.00" d=" M 26.39 10.31 C 27.71 10.98 27.71 11.65 26.39 12.32 C 25.08 11.65 25.08 10.98 26.39 10.31 Z" />
</g>
<g id="#987370ff">
<path fill="#987370" opacity="1.00" d=" M 33.16 10.06 C 34.79 9.53 35.36 10.08 34.87 11.71 C 33.24 12.24 32.68 11.69 33.16 10.06 Z" />
</g>
<g id="#b88a87ff">
<path fill="#b88a87" opacity="1.00" d=" M 13.36 11.36 C 14.96 10.88 15.51 11.45 14.99 13.10 C 13.38 13.58 12.84 13.00 13.36 11.36 Z" />
</g>
<g id="#503b3aff">
<path fill="#503b3a" opacity="1.00" d=" M 30.09 13.04 C 33.41 13.21 28.54 16.06 30.09 13.04 Z" />
</g>
<g id="#d39f9bff">
<path fill="#d39f9b" opacity="1.00" d=" M 30.73 16.68 C 32.45 15.88 33.99 14.76 35.61 13.80 C 34.73 15.50 33.66 17.35 31.61 17.76 C 29.04 18.77 26.87 16.55 25.35 14.78 C 27.14 15.41 28.88 16.24 30.73 16.68 Z" />
</g>
<g id="#9f7976ff">
<path fill="#9f7976" opacity="1.00" d=" M 44.35 14.21 C 44.86 14.73 44.86 14.73 44.35 14.21 Z" />
</g>
<g id="#2e312f9c">
<path fill="#2e312f" opacity="0.61" d=" M 10.01 18.72 C 10.80 20.31 11.65 21.85 12.56 23.38 C 8.91 21.23 4.48 22.19 0.48 21.55 C 3.90 21.00 7.38 20.98 10.84 21.01 C 10.64 20.44 10.22 19.29 10.01 18.72 Z" />
</g>
<g id="#c1928eff">
<path fill="#c1928e" opacity="1.00" d=" M 18.44 18.95 C 20.05 18.44 20.58 19.00 20.04 20.65 C 18.43 21.16 17.89 20.60 18.44 18.95 Z" />
</g>
<g id="#a67c79ff">
<path fill="#a67c79" opacity="1.00" d=" M 36.44 19.20 C 36.93 19.74 36.93 19.74 36.44 19.20 Z" />
</g>
<g id="#343e3b9c">
<path fill="#343e3b" opacity="0.61" d=" M 48.10 22.20 C 48.33 21.62 48.80 20.47 49.03 19.90 C 48.80 20.47 48.33 21.62 48.10 22.20 Z" />
</g>
<g id="#9e7874ff">
<path fill="#9e7874" opacity="1.00" d=" M 37.16 21.60 C 40.48 21.90 35.49 24.51 37.16 21.60 Z" />
</g>
<g id="#755755ff">
<path fill="#755755" opacity="1.00" d=" M 24.02 22.67 C 27.33 22.62 22.67 25.77 24.02 22.67 Z" />
</g>
<g id="#23262579">
<path fill="#232625" opacity="0.47" d=" M 22.84 29.03 C 28.69 29.93 34.66 29.64 40.37 28.05 C 39.49 28.49 38.63 28.94 37.76 29.39 C 39.34 34.40 41.32 39.32 42.18 44.53 L 41.92 45.08 C 40.07 40.00 38.35 34.88 36.76 29.72 C 32.39 30.02 28.00 30.06 23.61 30.07 C 21.87 32.88 19.76 35.52 18.59 38.63 C 18.02 41.55 18.81 44.54 18.96 47.47 L 18.20 47.54 C 17.93 44.55 17.00 41.52 17.54 38.51 C 18.75 35.08 21.05 32.17 22.84 29.03 Z" />
</g>
<g id="#3f4a46ab">
<path fill="#3f4a46" opacity="0.67" d=" M 41.92 45.08 L 42.18 44.53 C 42.48 44.87 43.10 45.56 43.41 45.91 C 43.67 47.22 43.86 48.55 44.12 49.87 C 41.86 49.49 41.70 46.90 41.92 45.08 Z" />
</g>
<g id="#2c33308b">
<path fill="#2c3330" opacity="0.55" d=" M 19.35 48.10 C 20.72 48.93 20.40 51.05 18.68 51.09 C 18.85 50.34 19.19 48.85 19.35 48.10 Z" />
</g>
<g id="#62746dd8">
<path fill="#62746d" opacity="0.85" d=" M 14.95 52.00 C 14.66 50.73 15.75 49.78 16.61 49.06 C 16.98 49.63 17.70 50.77 18.06 51.34 L 17.52 52.00 L 14.95 52.00 Z" />
</g>
</svg>
